assets/icons/24px/outline/masonery-24px.svg

<svg width="24" height="24" viewBox="0 0 24 24" fill="none" xmlns="http://www.w3.org/2000/svg">
<path d="M3 7C3 5.11438 3 4.17157 3.58579 3.58579C4.17157 3 5.11438 3 7 3H17C18.8856 3 19.8284 3 20.4142 3.58579C21 4.17157 21 5.11438 21 7V17C21 18.8856 21 19.8284 20.4142 20.4142C19.8284 21 18.8856 21 17 21H7C5.11438 21 4.17157 21 3.58579 20.4142C3 19.8284 3 18.8856 3 17V7Z" stroke="white" stroke-width="2"/>
<path d="M3 15.5H21M9 8.5V15.5M15 3L15 8.5M15 15.5V21M3 8.5L21 8.5" stroke="white" stroke-width="2" stroke-linecap="round"/>
</svg>

<svg width="24" height="24" fill="none" xmlns="http://www.w3.org/2000/svg"><path d="M3 7c0-1.886 0-2.828.586-3.414C4.172 3 5.114 3 7 3h10c1.886 0 2.828 0 3.414.586C21 4.172 21 5.114 21 7v10c0 1.886 0 2.828-.586 3.414C19.828 21 18.886 21 17 21H7c-1.886 0-2.828 0-3.414-.586C3 19.828 3 18.886 3 17V7z" stroke="#fff" stroke-width="2"/><path d="M3 15.5h18m-12-7v7M15 3v5.5m0 7V21M3 8.5h18" stroke="#fff" stroke-width="2" stroke-linecap="round"/></svg>
